X:1
T: Jack-of-all-trades
C:
R:Jig
Q:180
K:A
M:6/8
L:1/16
E2|A2B2A2 A2c2e2|a4A2 A4B2|c2d2e2 d2c2B2|A2B2A2 G2F2E2|A2B2A2 A2c2e2|a4A2 A4B2|c2d2e2 d2c2B2|c2A2A2 A4E2|
A2B2A2 A2c2e2|a4A2 A4B2|c2d2e2 d2c2B2|A2B2A2 G2F2E2|A2B2A2 A2c2e2|a4A2 A4B2|c2d2e2 d2c2B2|c2A2A2 A4E2|
A6 c2B2A2|c2e2e2 e4e2|a6 f4c'2|g2e2e2 e4e2|f2g2a2 e2c2A2|g2b2e'2 c'2a2e2|f2g2a2 c4B2|c2A2A2 A4E2|
A6 c2B2A2|c2e2e2 e4e2|a6 f4c'2|g2e2e2 e4e2|f2g2a2 e2c2A2|g2b2e'2 c'2a2e2|f2g2a2 c4B2|c2A2A2 A4||
